!!!!SEGMENT: pl-wtm--r-1448_stefani-jozef--krakowiak-no-2.krn
!!!cenid: 18xx:2467
!!!COM: Stefani, Józef
!!!COM-rism: pe30024097
!!!CDT: 1800/04/16-1876/03/19
!!!CNT: Polish
!!!OTL: Krakowiak No. 2
!!!PDT:
!!!AGN: Secular; Krakowiak
!!!SMS-siglum: PL-Wtm
!!!SMS-variant:
!!!SMS-altvar:
!!!SMS-shelfmark: R 1448
!!!NIFC-rismID: 1001116472
!!!system-decoration: [(s1,s2)][(s3,s4,s5)][(s6)]{(s7,s8)}[(s9)][(s10)]{(s11,s12)}
**kern	**dynam	**kern	**dynam	**kern	**text	**kern	**dynam	**kern	**dynam	**kern	**dynam	**kern	**dynam	**kern	**dynam	**kern	**dynam	**kern	**dynam	**kern	**dynam	**kern	**dynam
*part12	*part12	*part11	*part11	*part10	*part10	*part9	*part9	*part8	*part8	*part7	*part7	*part6	*part6	*part5	*part5	*part4	*part4	*part3	*part3	*part2	*part2	*part1	*part1
*staff12	*	*staff11	*	*staff10	*staff10	*staff9	*	*staff8	*	*staff7	*	*staff6	*	*staff5	*	*staff4	*	*staff3	*	*staff2	*	*staff1	*
*I"[Contrabbassi]	*	*I"[Cello]	*	*I"[vocal]	*	*I"[Viola]	*	*I"[Violino II]	*	*I"[Violino I]	*	*I"[Tromba in C]	*	*I"[Fagotto]	*	*I"[Corno in E♭]	*	*I"[Clarinetto in B]	*	*I"[Oboe]	*	*I"[Flauto]	*
*I'[cb]	*	*I'[vlc]	*	*I'[V]	*	*I'[vla]	*	*I'[Vl 2]	*	*I'[vl 1]	*	*I'[tr in C]	*	*I'[fag]	*	*I'[cor in E|b]	*	*I'[cl in B]	*	*I'[ob]	*	*I'[fl]	*
*clefF4	*	*clefF4	*	*clefG2	*	*clefC3	*	*clefG2	*	*clefG2	*	*clefG2	*	*clefF4	*	*clefG2	*	*clefG2	*	*clefG2	*	*clefG2	*
*ITrd0c0	*	*	*	*	*	*	*	*	*	*	*	*	*	*	*	*ITrd5c9	*	*ITrd1c2	*	*	*	*	*
*k[b-e-a-]	*	*k[b-e-a-]	*	*k[b-e-a-]	*	*k[b-e-a-]	*	*k[b-e-a-]	*	*k[b-e-a-]	*	*k[b-e-a-]	*	*k[b-e-a-]	*	*k[b-e-a-]	*	*k[b-e-a-]	*	*k[b-e-a-]	*	*k[b-e-a-]	*
*M2/4	*	*M2/4	*	*M2/4	*	*M2/4	*	*M2/4	*	*M2/4	*	*M2/4	*	*M2/4	*	*M2/4	*	*M2/4	*	*M2/4	*	*M2/4	*
=1	=1	=1	=1	=1	=1	=1	=1	=1	=1	=1	=1	=1	=1	=1	=1	=1	=1	=1	=1	=1	=1	=1	=1
*	*	*	*	*	*	*	*	*	*	*	*	*	*	*	*	*	*	*^	*	*	*	*	*
!!LO:TX:t=P:problem:all\right:global
!	!	!	!	!	!	!	!	!	!	!	!	!LO:TX:a:t=Col V°.1°	!	!	!	!	!	!	!	!	!LO:TX:a:t=Col V°.1°	!	!LO:TX:a:t=Col V°.1° 8va	!
!	!	!	!	!	!	!	!	!	!	!LO:TX:b:i:t=|	!	!LO:TX:b:i:t=|	!	!LO:TX:a:t=Col b&colon;	!	!	!	!	!	!	!LO:TX:b:i:t=|	!	!LO:TX:b:i:t=|	!
4E-\	.	2ryy	.	2r	.	8r	.	8r	.	8g/	f	8g/	f	4E-\	.	8r	.	8g/	8r	.	8g/	f	8gg\	f
.	.	.	.	.	.	4e-\|	.	8g 8B-/	.	4b-^\|	.	4b-^\|	.	.	.	4g 4e-\	.	4b-/	4g\	.	4b-^\|	.	4bb-^\|	.
4r	.	.	.	.	.	.	.	4g 4B-/	.	.	.	.	.	4r	.	.	.	.	.	.	.	.	.	.
.	.	.	.	.	.	8e-\|	.	.	.	8ee-\|	.	8ee-\|	.	.	.	8g 8e-\	.	8ee-/	8g\	.	8ee-\|	.	8eee-\|	.
=2	=2	=2	=2	=2	=2	=2	=2	=2	=2	=2	=2	=2	=2	=2	=2	=2	=2	=2	=2	=2	=2	=2	=2	=2
4BB-/	.	2ryy	.	2r	.	8r	.	8r	.	8dd'\L	.	8dd'\L	.	4BB-/	.	8r	.	8dd/L	8r	.	8dd'\L	.	8ddd'\L	.
.	.	.	.	.	.	8f 8d\	.	8a- 8B-/	.	8b-'\J	.	8b-'\J	.	.	.	8f 8B-/	.	8b-/J	8a-\	.	8b-'\J	.	8bb-'\J	.
4r	.	.	.	.	.	4f 4d\	.	4a- 4B-/	.	4a-'\	.	4a-'\	.	4r	.	4f 4B-/	.	4a-/	4d\	.	4a-'\	.	4aa-'\	.
=3	=3	=3	=3	=3	=3	=3	=3	=3	=3	=3	=3	=3	=3	=3	=3	=3	=3	=3	=3	=3	=3	=3	=3	=3
4BB-/	.	2ryy	.	2r	.	8r	.	8r	.	8f'/	.	8f'/	.	4BB-/	.	8r	.	8f/	8r	.	8f'/	.	8ff'\	.
.	.	.	.	.	.	4f 4B-\	.	8a- 8B-/	.	4a-^/	.	4a-^/	.	.	.	8f 8B-/	.	4a-/	4f\	.	4a-^/	.	4aa-^\	.
4r	.	.	.	.	.	.	.	4a- 4B-/	.	.	.	.	.	4r	.	4f 4B-/	.	.	.	.	.	.	.	.
.	.	.	.	.	.	8f 8B-\	.	.	.	8dd'\	.	8dd'\	.	.	.	.	.	8dd/	8a-\	.	8dd'\	.	8ddd'\	.
=4	=4	=4	=4	=4	=4	=4	=4	=4	=4	=4	=4	=4	=4	=4	=4	=4	=4	=4	=4	=4	=4	=4	=4	=4
4E-\	.	2ryy	.	2r	.	8r	.	8r	.	8ff'\L	.	8ff'\L	.	4E-\	.	8r	.	8ff/L	8r	.	8ff'\L	.	8fff'\L	.
.	.	.	.	.	.	8e-\	.	8g 8B-/	.	8ee-'\J	.	8ee-'\J	.	.	.	8e- 8G/	.	8ee-/J	8g\	.	8ee-'\J	.	8eee-'\J	.
4r	.	.	.	.	.	4e-\	.	4g 4B-/	.	4b-'\	.	4b-'\	.	4r	.	4e- 4G/	.	4b-/	4g\	.	4b-'\	.	4bb-'\	.
=5	=5	=5	=5	=5	=5	=5	=5	=5	=5	=5	=5	=5	=5	=5	=5	=5	=5	=5	=5	=5	=5	=5	=5	=5
4E-\	.	2ryy	.	2r	.	8r	.	8r	.	8g/	.	8g/	.	4E-\	.	8r	.	8g/	8r	.	8g/	.	8gg\	.
.	.	.	.	.	.	4e-\	.	8g 8B-/	.	4b-'^\	.	4b-'^\	.	.	.	4g 4e-\	.	4b-/	4g\	.	4b-'^\	.	4bb-'^\	.
4r	.	.	.	.	.	.	.	4g 4B-/	.	.	.	.	.	4r	.	.	.	.	.	.	.	.	.	.
.	.	.	.	.	.	8e-\	.	.	.	8ee-'\	.	8ee-'\	.	.	.	8g 8e-\	.	8ee-/	8g\	.	8ee-'\	.	8eee-'\	.
=6	=6	=6	=6	=6	=6	=6	=6	=6	=6	=6	=6	=6	=6	=6	=6	=6	=6	=6	=6	=6	=6	=6	=6	=6
4BB-/	.	2ryy	.	2r	.	8r	.	8r	.	8dd'\L	.	8dd'\L	.	4BB-/	.	8r	.	8dd/L	8r	.	8dd'\L	.	8ddd'\L	.
.	.	.	.	.	.	8f 8d\	.	8a- 8B-/	.	8b-'\J	.	8b-'\J	.	.	.	8f 8B-/	.	8b-/J	8a-\	.	8b-'\J	.	8bb-'\J	.
4r	.	.	.	.	.	4f 4d\	.	4a- 4B-/	.	4a-'/	.	4a-'/	.	4r	.	4f 4B-/	.	4a-/	4d\	.	4a-'/	.	4aa-'\	.
!!LO:PB:g=original
=7	=7	=7	=7	=7	=7	=7	=7	=7	=7	=7	=7	=7	=7	=7	=7	=7	=7	=7	=7	=7	=7	=7	=7	=7
4BB-/	.	4BB-/	.	2r	.	8r	.	8r	.	8f/	.	8f/	.	4BB-/	.	8r	.	8f/	8r	.	8f/	.	8ff\	.
.	.	.	.	.	.	4f 4B-\	.	8a- 8B-/	.	4a-/	.	4a-/	.	.	.	8f 8B-/	.	4a-/	4f\	.	4a-/	.	4aa-\	.
4r	.	4r	.	.	.	.	.	4a- 4B-/	.	.	.	.	.	4r	.	4f 4B-/	.	.	.	.	.	.	.	.
.	.	.	.	.	.	8f 8B-\	.	.	.	8dd\	.	8dd\	.	.	.	.	.	8dd/	8a-\	.	8dd\	.	8ddd\	.
=8	=8	=8	=8	=8	=8	=8	=8	=8	=8	=8	=8	=8	=8	=8	=8	=8	=8	=8	=8	=8	=8	=8	=8	=8
8E-\	.	8E-\	.	2r	.	8e-\	.	8g 8B-/	.	8ee-\	.	8ee-\	.	8E-\	.	8e- 8G/	.	8ee-/	8g\	.	8ee-\	.	8eee-\	.
8r	.	8r	.	.	.	8r	.	8r	.	8r	.	8r	.	8r	.	8r	.	8r	8ryy	.	8r	.	8r	.
4E-\	f	4E-\	f	.	.	4e- 4B- 4E-\	f	4g 4B-/	.	4ee- 4g\	f	4e-/	.	4E-\	f	4e- 4G/	.	4ee- 4g\	4ryy	.	4ee-\	.	4eee-\	.
*	*	*	*	*	*	*	*	*	*	*	*	*	*	*	*	*	*	*v	*v	*	*	*	*	*
=9||	=9||	=9||	=9||	=9||	=9||	=9||	=9||	=9||	=9||	=9||	=9||	=9||	=9||	=9||	=9||	=9||	=9||	=9||	=9||	=9||	=9||	=9||	=9||
!	!	!	!	!	!	!	!	!	!	!	!	!	!	!	!	!	!	!	!	!	!	!LO:TX:a:t=D. A.	!
4E-\	.	4BB- 4EE-/	p	8G/	Ka-	4B- 4E-/	.	8e-'/L	p	8g'/L	p	2r	.	2r	.	2r	.	2r	.	2r	.	2r	.
.	.	.	.	8B-/	-mień	.	.	8g'/J	.	8b-'/J	.	.	.	.	.	.	.	.	.	.	.	.	.
.	.	.	.	.	.	.	.	(8qg/	.	(8qb-/	.	.	.	.	.	.	.	.	.	.	.	.	.
4E-\	.	4BB- 4EE-/	.	8A-/	na	4B- 4E-/	.	8f/L)	.	8a-/L)	.	.	.	.	.	.	.	.	.	.	.	.	.
.	.	.	.	8F/	Ka-	.	.	8d'/J	.	8f'/J	.	.	.	.	.	.	.	.	.	.	.	.	.
=10	=10	=10	=10	=10	=10	=10	=10	=10	=10	=10	=10	=10	=10	=10	=10	=10	=10	=10	=10	=10	=10	=10	=10
4E-\	.	4BB- 4EE-/	.	4G/	-mie-	4B- 4E-/	.	4e-'/	.	4g'/	.	2ryy	.	2ryy	.	2ryy	.	2ryy	.	2ryy	.	2ryy	.
4E-\	.	4BB- 4EE-/	.	4G/	-niu	4B- 4E-/	.	4e-'/	.	4g'/	.	.	.	.	.	.	.	.	.	.	.	.	.
=11	=11	=11	=11	=11	=11	=11	=11	=11	=11	=11	=11	=11	=11	=11	=11	=11	=11	=11	=11	=11	=11	=11	=11
4E-\	.	4BB- 4EE-/	.	8G/	Na	4B- 4E-/	.	8e-'/L	.	8g'/L	.	2ryy	.	2ryy	.	2ryy	.	2ryy	.	2ryy	.	2ryy	.
.	.	.	.	8B-/	Ka-	.	.	8g'/J	.	8b-'/J	.	.	.	.	.	.	.	.	.	.	.	.	.
.	.	.	.	.	.	.	.	(8qg/	.	(8qb-/	.	.	.	.	.	.	.	.	.	.	.	.	.
4E-\	.	4BB- 4EE-/	.	8A-/	-mie-	4B- 4E-/	.	8f/L)	.	8a-/L)	.	.	.	.	.	.	.	.	.	.	.	.	.
.	.	.	.	8F/	-niu	.	.	8d'/J	.	8f'/J	.	.	.	.	.	.	.	.	.	.	.	.	.
=12	=12	=12	=12	=12	=12	=12	=12	=12	=12	=12	=12	=12	=12	=12	=12	=12	=12	=12	=12	=12	=12	=12	=12
4E-\	.	4BB- 4EE-/	.	4G/	Ka-	4B- 4E-/	.	4e-/	.	4g/	.	2ryy	.	2ryy	.	2ryy	.	2ryy	.	2ryy	.	2ryy	.
4E-\	.	4BB- 4EE-/	.	4G/	-mień	4B- 4E-/	.	4e-/	.	4g/	.	.	.	.	.	.	.	.	.	.	.	.	.
!!LO:PB:g=original
=13	=13	=13	=13	=13	=13	=13	=13	=13	=13	=13	=13	=13	=13	=13	=13	=13	=13	=13	=13	=13	=13	=13	=13
4E-\	.	4BB- 4EE-/	.	8G/	A	4B- 4E-/	.	8e-/L	.	8g'/L	.	2r	.	2r	.	2r	.	2r	.	2r	.	2r	.
.	.	.	.	8B-/	na	.	.	8g/J	.	8b-'/J	.	.	.	.	.	.	.	.	.	.	.	.	.
.	.	.	.	.	.	.	.	(8qg/	.	8qb-/	.	.	.	.	.	.	.	.	.	.	.	.	.
4E-\	.	4BB- 4EE-/	.	8A-/	tym	4B- 4E-/	.	8f/L)	.	8a-/L	.	.	.	.	.	.	.	.	.	.	.	.	.
.	.	.	.	8F/	Ka-	.	.	8d/J	.	8f/J	.	.	.	.	.	.	.	.	.	.	.	.	.
=14	=14	=14	=14	=14	=14	=14	=14	=14	=14	=14	=14	=14	=14	=14	=14	=14	=14	=14	=14	=14	=14	=14	=14
4E-\	.	4BB- 4EE-/	.	4G/	-mie-	4B- 4E-/	.	4e-/	.	4g/	.	2r	.	2r	.	2r	.	2r	.	2r	.	2r	.
4E-\	.	4BB- 4EE-/	.	4G/	-niu	4B- 4E-/	.	4e-/	.	4g/	.	.	.	.	.	.	.	.	.	.	.	.	.
=15	=15	=15	=15	=15	=15	=15	=15	=15	=15	=15	=15	=15	=15	=15	=15	=15	=15	=15	=15	=15	=15	=15	=15
!LO:TX:t=P:problem:mixed beam	!	!LO:TX:t=P:problem:mixed beam	!	!	!	!	!	!	!	!	!	!	!	!	!	!	!	!	!	!	!	!	!
8AA-\L	.	8AA-\L	.	8c\	ie-	8A-\L	.	8e-/L	.	8cc\L	.	2r	.	8r	.	4r	.	8r	.	8r	.	8r	.
!	!	!	!	!	!	!	!	!	!	!	!	!	!	!LO:TX:t=P:problem:mixed beam	!	!	!	!	!	!	!	!	!
8A-\	.	8A-\	.	8c\	-szcze	8A-\	.	8e-/	.	8cc\	.	.	.	8A-\L	.	.	.	8ccL 8a-\	.	8cc\L	.	8ccc'\L	.
8B-\	.	8B-\	.	8B-\	ie-	8B-\	.	8g 8B-/	.	8b-\	.	.	.	8B-\	.	8gL 8e-\	.	8b- 8g\	.	8b-\	.	8ddd'\	.
8AA-\J	.	8AA-\J	.	8D/	-den	8f\J	.	8a-J 8B-/	.	8dd\J	.	.	.	8BB-\J	.	8fJ 8B-\	.	8b-J 8a-\	.	8dd\J	.	8eee-'\J	.
=16	=16	=16	=16	=16	=16	=16	=16	=16	=16	=16	=16	=16	=16	=16	=16	=16	=16	=16	=16	=16	=16	=16	=16
4E-\	.	4E-\	.	4E-/	Ka-	4e-\	.	4g 4B-/	.	4ee-\	.	2r	.	4E-\	.	4e- 4G/	.	4b- 4g\	.	4ee-\	.	4eee-\	.
!	!	!	!	!	!	!	!	!	!	!	!	!	!	!	!	!	!	!	!	!	!	!LO:TX:a:t=B.	!
!!LO:TX:a:t=P:w źródle wykreslony fragment 2 takty w całej partyturze:problem
4E-\	.	4E-\	.	4E-/	-mień	4e-\	.	4g 4B-/	.	4ee-\	.	.	.	4E-\	.	4e- 4G/	.	4b- 4g\	.	4ee-\	.	4ee-\	.
!!LO:PB:g=original
=17	=17	=17	=17	=17	=17	=17	=17	=17	=17	=17	=17	=17	=17	=17	=17	=17	=17	=17	=17	=17	=17	=17	=17
4BB-/	p	2ryy	.	8F/	Tak	4B-/	.	8d/L	.	8f/L	p	2r	.	2r	.	2r	.	2r	.	2r	.	2r	.
.	.	.	.	8G/	też	.	.	8e-/	.	8g/	.	.	.	.	.	.	.	.	.	.	.	.	.
4B-\	.	.	.	8A-/	sta-	4B-/	.	8f/	.	8a-/	.	.	.	.	.	.	.	.	.	.	.	.	.
.	.	.	.	8F/	-łość	.	.	8d/J	.	8f/J	.	.	.	.	.	.	.	.	.	.	.	.	.
=18	=18	=18	=18	=18	=18	=18	=18	=18	=18	=18	=18	=18	=18	=18	=18	=18	=18	=18	=18	=18	=18	=18	=18
4E-\	.	2ryy	.	4c/	mo-	4E-/	.	4a-X/	.	4cc\	.	2r	.	2r	.	2e- 2E-/	p	2r	.	(4aa-T\	.	(4cccT\	p
4E-\	.	.	.	4B-/	-ja	4E-/	.	4g/	.	4b-\	.	.	.	.	.	.	.	.	.	4gg\)	.	4bb-\)	.
=19	=19	=19	=19	=19	=19	=19	=19	=19	=19	=19	=19	=19	=19	=19	=19	=19	=19	=19	=19	=19	=19	=19	=19
4BB-/	.	2ryy	.	8A-/	Ka-	4B-/	.	8f/L	.	8a-/L	.	2r	.	2r	.	2r	.	2r	.	2r	.	2r	.
.	.	.	.	8A-/	-mie-	.	.	8f/	.	8a-/	.	.	.	.	.	.	.	.	.	.	.	.	.
4BB-/	.	.	.	8G/	-niu	4B-/	.	8e-/	.	8g/	.	.	.	.	.	.	.	.	.	.	.	.	.
.	.	.	.	8F/	dla	.	.	8d/J	.	8f/J	.	.	.	.	.	.	.	.	.	.	.	.	.
=20	=20	=20	=20	=20	=20	=20	=20	=20	=20	=20	=20	=20	=20	=20	=20	=20	=20	=20	=20	=20	=20	=20	=20
4E-\	.	2ryy	.	4G/	cie-	4E-/	.	4e-/	.	4g/	.	2r	.	2r	.	2r	.	2r	.	2r	.	2r	.
4E-\	.	.	.	4G/	-bie	4E-/	.	4e-/	.	4g/	.	.	.	.	.	.	.	.	.	.	.	.	.
=21	=21	=21	=21	=21	=21	=21	=21	=21	=21	=21	=21	=21	=21	=21	=21	=21	=21	=21	=21	=21	=21	=21	=21
4BB-/	.	2ryy	.	8F/	Ni-	4B-/	.	8d/L	.	8f/L	.	2r	.	2r	.	2r	.	2r	.	2r	.	2r	.
.	.	.	.	8G/	-gdy	.	.	8e-/	.	8g/	.	.	.	.	.	.	.	.	.	.	.	.	.
4B-\	.	.	.	8A-/	się	4B-/	.	8f/	.	8a-/	.	.	.	.	.	.	.	.	.	.	.	.	.
.	.	.	.	8F/	nie	.	.	8d/J	.	8f/J	.	.	.	.	.	.	.	.	.	.	.	.	.
=22	=22	=22	=22	=22	=22	=22	=22	=22	=22	=22	=22	=22	=22	=22	=22	=22	=22	=22	=22	=22	=22	=22	=22
4E-\	.	2ryy	.	4c\	zmie-	4E-/	.	4a-/	.	4cc\	.	2r	.	2r	.	2e- 2E-/	p	2r	.	(4aa-T\	.	(4cccT\	p
4E-\	.	.	.	4B-\	-ni	4E-/	.	4g/	.	4b-\	.	.	.	.	.	.	.	.	.	4gg\)	.	4bb-\)	.
=23	=23	=23	=23	=23	=23	=23	=23	=23	=23	=23	=23	=23	=23	=23	=23	=23	=23	=23	=23	=23	=23	=23	=23
4AA-/	mf	2ryy	.	8c/	Jak	8A-/L	.	8a-/L	.	8cc\L	mf	2r	.	8r	.	4r	.	8r	.	2r	.	8r	.
!	!	!	!	!	!	!	!	!	!	!	!	!	!	!LO:TX:t=P:problem:mixed beam	!	!	!	!	!	!	!	!	!
.	.	.	.	8c/	Pan	8A-/	.	8a-/	.	8cc\	.	.	.	8A-\L	.	.	.	8ccL 8a-\	.	.	.	8ccc\L	.
4BB-/	.	.	.	8B-/	Bóg	8B-/	.	8g 8B-/	.	8b-\	.	.	.	8B-\	.	8gL 8e-\	.	8b- 8g\	.	.	.	8bb-\	.
.	.	.	.	8D/	na	8f/J	.	8a-J 8B-/	.	8dd\J	.	.	.	8BB-\J	.	8fJ 8B-\	.	8ddJ 8a-\	.	.	.	8ddd\J	.
!!LO:PB:g=original
=24	=24	=24	=24	=24	=24	=24	=24	=24	=24	=24	=24	=24	=24	=24	=24	=24	=24	=24	=24	=24	=24	=24	=24
4E-\	.	2ryy	.	4E-/	nie-	4e-\	.	4g 4B-/	.	4ee-\	.	2r	.	4E-\	.	4e- 4G/	.	4ee- 4g\	.	2r	.	4eee-\	.
4E-\	.	.	.	4E-/	-bie,	4e- 4E-/	.	4B-/	.	4e- 4G/	.	.	.	4E-\	.	4e- 4G/	.	4ee- 4g\	.	.	.	4ee-\	.
=25	=25	=25	=25	=25	=25	=25	=25	=25	=25	=25	=25	=25	=25	=25	=25	=25	=25	=25	=25	=25	=25	=25	=25
!	!	!	!	!	!	!	!	!	!	!	!	!	!	!	!	!	!	!	!	!LO:TX:a:t=Col Vº.Iº.	!	!LO:TX:a:t=Col Vº.Iº.8va	!
!	!	!	!	!LO:TX:a:t=tańczą	!	!	!	!	!	!	!	!	!	!LO:TX:a:t=Col b&colon;	!	!	!	!	!	!	!	!	!
4BB-/	f	2ryy	.	2r	.	8r	.	8r	.	8f/|	f	8f/	.	4BB-/	f	8r	f	8r	f	8f/|	f	8ff\|	f
.	.	.	.	.	.	4d 4B-\	.	4f 4B-/	.	4b-^\|	.	4b-\	.	.	.	8f 8B-/	.	4b- 4d/	.	4b-^\|	.	4bb-^\|	.
4r	.	.	.	.	.	.	.	.	.	.	.	.	.	4r	.	4f 4B-/	.	.	.	.	.	.	.
.	.	.	.	.	.	8d 8B-\	.	8f 8B-/	.	8dd\|	.	8dd\	.	.	.	.	.	8b- 8d/	.	8dd\|	.	8ddd\|	.
=26	=26	=26	=26	=26	=26	=26	=26	=26	=26	=26	=26	=26	=26	=26	=26	=26	=26	=26	=26	=26	=26	=26	=26
!	!	!	!	!	!	!	!	!	!	!	!	!LO:TX:a:t=Col Vº.Iº.	!	!	!	!	!	!	!	!	!	!	!
.	.	.	.	.	.	.	.	.	.	8qdd/	.	8qdd/	.	.	.	.	.	.	.	8qdd/	.	8qddd/	.
*	*	*	*	*	*	*	*	*	*	*	*	*	*	*	*	*^	*	*	*	*	*	*	*
4F\	.	2ryy	.	2r	.	8r	.	8r	.	8cc\L	.	8cc\L	.	4F\	.	8r	8ryy	.	8r	.	8cc\L	.	8ccc\L	.
.	.	.	.	.	.	8e- 8c\	.	8f 8An/	.	8bn'\J	.	8bn'\J	.	.	.	8f/	8e-\	.	8a 8c/	.	8bn'\J	.	8bbn'\J	.
4r	.	.	.	.	.	4e- 4c\	.	4f 4A/	.	4cc'\	.	4cc'\	.	4r	.	4f/	4e-\	.	4a 4c/	.	4cc'\	.	4ccc'\	.
=27	=27	=27	=27	=27	=27	=27	=27	=27	=27	=27	=27	=27	=27	=27	=27	=27	=27	=27	=27	=27	=27	=27	=27	=27
4FF/	.	2ryy	.	2r	.	8r	.	8r	.	8cc\	.	8cc\	.	4FF/	.	8r	8ryy	.	8r	.	8cc\	.	8ccc\	.
.	.	.	.	.	.	4e- 4c\	.	4f 4A-/	.	4ff\	.	4f/	.	.	.	8f/	8e-\	.	8a 8c/	.	4ff\	.	4fff\	.
4r	.	.	.	.	.	.	.	.	.	.	.	.	.	4r	.	4f/	4e-\	.	4a 4c/	.	.	.	.	.
.	.	.	.	.	.	8e- 8c\	.	8f 8A-/	.	8ee-\	.	8ee-\	.	.	.	.	.	.	.	.	8ee-\	.	8eee-\	.
*	*	*	*	*	*	*	*	*	*	*	*	*	*	*	*	*v	*v	*	*	*	*	*	*	*
=28	=28	=28	=28	=28	=28	=28	=28	=28	=28	=28	=28	=28	=28	=28	=28	=28	=28	=28	=28	=28	=28	=28	=28
4BB-/	.	2ryy	.	2r	.	8r	.	8r	.	(16dd\LL	.	16dd\LL	.	4BB-/	.	8r	.	8r	.	(16dd\LL	.	(16ddd\LL	.
.	.	.	.	.	.	.	.	.	.	16ee-\	.	16ee-\	.	.	.	.	.	.	.	16ee-\	.	16eee-\	.
.	.	.	.	.	.	8d 8B-\	.	8f 8B-/	.	16dd\	.	16dd\	.	.	.	8f 8B-/	.	4b- 4d/	.	16dd\	.	16ddd\	.
.	.	.	.	.	.	.	.	.	.	16cc\JJ)	.	16cc\JJ	.	.	.	.	.	.	.	16cc\JJ)	.	16ccc\JJ)	.
4r	.	.	.	.	.	4d 4B-\	.	4f 4B-/	.	4b-\	.	4b-\	.	4r	.	4f 4B-/	.	.	.	4b-\	.	4bb-\	.
.	.	.	.	.	.	.	.	.	.	.	.	.	.	.	.	.	.	8b- 8d/	.	.	.	.	.
=29	=29	=29	=29	=29	=29	=29	=29	=29	=29	=29	=29	=29	=29	=29	=29	=29	=29	=29	=29	=29	=29	=29	=29
4BB-/	.	2ryy	.	2r	.	8r	.	8r	.	8f/|	.	8f/	.	4BB-/	.	8r	.	8r	.	8f/|	.	8ff\|	.
.	.	.	.	.	.	4d 4B-\	.	4f 4B-/	.	4b-\|	.	4b-\	.	.	.	8f 8B-/	.	4b- 4d/	.	4b-\|	.	4bb-\|	.
4r	.	.	.	.	.	.	.	.	.	.	.	.	.	4r	.	4f 4B-/	.	.	.	.	.	.	.
.	.	.	.	.	.	8d 8B-\	.	8f 8B-/	.	8dd\|	.	8dd\	.	.	.	.	.	8b- 8d/	.	8dd\|	.	8ddd\|	.
!!LO:PB:g=original
=30	=30	=30	=30	=30	=30	=30	=30	=30	=30	=30	=30	=30	=30	=30	=30	=30	=30	=30	=30	=30	=30	=30	=30
.	.	.	.	.	.	.	.	.	.	(8qdd/	.	.	.	.	.	.	.	.	.	.	.	.	.
4BB-/	.	2ryy	.	2r	.	8r	.	8r	.	8cc\L)	.	2r	.	2r	.	2r	.	2r	.	2r	.	2r	.
.	.	.	.	.	.	8e- 8c\	.	8f 8An/	.	8bn'\J	.	.	.	.	.	.	.	.	.	.	.	.	.
4r	.	.	.	.	.	4e- 4c\	.	4f 4A/	.	4cc\	.	.	.	.	.	.	.	.	.	.	.	.	.
=31	=31	=31	=31	=31	=31	=31	=31	=31	=31	=31	=31	=31	=31	=31	=31	=31	=31	=31	=31	=31	=31	=31	=31
4FF/	.	2ryy	.	2r	.	8r	.	8r	.	(16ee-\LL	.	2r	.	2r	.	2r	.	2r	.	2r	.	2r	.
.	.	.	.	.	.	.	.	.	.	16gg\	.	.	.	.	.	.	.	.	.	.	.	.	.
.	.	.	.	.	.	4e- 4c\	.	4f 4A-/	.	16ff\	.	.	.	.	.	.	.	.	.	.	.	.	.
.	.	.	.	.	.	.	.	.	.	16een\JJ	.	.	.	.	.	.	.	.	.	.	.	.	.
4F\	.	.	.	.	.	.	.	.	.	16ff\LL	.	.	.	.	.	.	.	.	.	.	.	.	.
.	.	.	.	.	.	.	.	.	.	16ee-X\	.	.	.	.	.	.	.	.	.	.	.	.	.
.	.	.	.	.	.	8e- 8c\	.	8f 8A-/	.	16dd\	.	.	.	.	.	.	.	.	.	.	.	.	.
.	.	.	.	.	.	.	.	.	.	16cc\JJ)	.	.	.	.	.	.	.	.	.	.	.	.	.
=32	=32	=32	=32	=32	=32	=32	=32	=32	=32	=32	=32	=32	=32	=32	=32	=32	=32	=32	=32	=32	=32	=32	=32
8B-\	.	2ryy	.	2r	.	8d 8B-\	.	8f 8B-/	.	8b-\	.	2r	.	2r	.	2r	.	2r	.	2r	.	2r	.
8r	.	.	.	.	.	8r	.	8r	.	8r	.	.	.	.	.	.	.	.	.	.	.	.	.
4BB-/	.	.	.	.	.	4f 4B-\	.	4dd 4f 4B-/	.	4bb- 4b- 4d\	.	.	.	.	.	.	.	.	.	.	.	.	.
=33	=33	=33	=33	=33	=33	=33	=33	=33	=33	=33	=33	=33	=33	=33	=33	=33	=33	=33	=33	=33	=33	=33	=33
!	!	!	!	!LO:TX:a:t=Kasia	!	!	!	!	!	!	!	!	!	!	!	!	!	!	!	!	!	!	!
4E-\	.	4BB- 4EE-/	p	8g/	Pły-	4B- 4E-/	.	8e-'/L	p	8g'/L	p	2r	.	2r	.	2r	.	2r	.	2r	.	2r	.
.	.	.	.	8b-/	-nie	.	.	8g'/J	.	8b-'/J	.	.	.	.	.	.	.	.	.	.	.	.	.
.	.	.	.	(8qb-/	.	.	.	(8qg/	.	(8qb-/	.	.	.	.	.	.	.	.	.	.	.	.	.
4E-\	.	4BB- 4EE-/	.	8a-/)	wi-	4B- 4E-/	.	8f/L)	.	8a-/L)	.	.	.	.	.	.	.	.	.	.	.	.	.
.	.	.	.	8f/	-sła	.	.	8d'/J	.	8f'/J	.	.	.	.	.	.	.	.	.	.	.	.	.
=34	=34	=34	=34	=34	=34	=34	=34	=34	=34	=34	=34	=34	=34	=34	=34	=34	=34	=34	=34	=34	=34	=34	=34
4E-\	.	4BB- 4EE-/	.	4g/	pły-	4B- 4E-/	.	4e-'/	.	4g'/	.	2ryy	.	2ryy	.	2ryy	.	2ryy	.	2ryy	.	2ryy	.
4E-\	.	4BB- 4EE-/	.	4g/	-nie	4B- 4E-/	.	4e-'/	.	4g'/	.	.	.	.	.	.	.	.	.	.	.	.	.
=35	=35	=35	=35	=35	=35	=35	=35	=35	=35	=35	=35	=35	=35	=35	=35	=35	=35	=35	=35	=35	=35	=35	=35
4E-\	.	4BB- 4EE-/	.	8g/	I	4B- 4E-/	.	8e-'/L	.	8g'/L	.	2ryy	.	2ryy	.	2ryy	.	2ryy	.	2ryy	.	2ryy	.
.	.	.	.	8b-/	pły-	.	.	8g'/J	.	8b-'/J	.	.	.	.	.	.	.	.	.	.	.	.	.
.	.	.	.	(8qb-/	.	.	.	(8qg/	.	(8qb-/	.	.	.	.	.	.	.	.	.	.	.	.	.
4E-\	.	4BB- 4EE-/	.	8a-/)	-nie	4B- 4E-/	.	8f/L)	.	8a-/L)	.	.	.	.	.	.	.	.	.	.	.	.	.
.	.	.	.	8f/	i	.	.	8d'/J	.	8f'/J	.	.	.	.	.	.	.	.	.	.	.	.	.
=36	=36	=36	=36	=36	=36	=36	=36	=36	=36	=36	=36	=36	=36	=36	=36	=36	=36	=36	=36	=36	=36	=36	=36
4E-\	.	4BB- 4EE-/	.	4g/	pły-	4B- 4E-/	.	4e-/	.	4g/	.	2ryy	.	2ryy	.	2ryy	.	2ryy	.	2ryy	.	2ryy	.
4E-\	.	4BB- 4EE-/	.	4g/	-nie	4B- 4E-/	.	4e-/	.	4g/	.	.	.	.	.	.	.	.	.	.	.	.	.
!!LO:PB:g=original
=37	=37	=37	=37	=37	=37	=37	=37	=37	=37	=37	=37	=37	=37	=37	=37	=37	=37	=37	=37	=37	=37	=37	=37
4E-\	.	4BB- 4EE-/	.	8g/	A	4B- 4E-/	.	8e-/L	.	8g'/L	.	2r	.	2r	.	2r	.	2r	.	2r	.	2r	.
.	.	.	.	8b-/	cho-	.	.	8g/J	.	8b-'/J	.	.	.	.	.	.	.	.	.	.	.	.	.
.	.	.	.	.	.	.	.	(8qg/	.	8qb-/	.	.	.	.	.	.	.	.	.	.	.	.	.
4E-\	.	4BB- 4EE-/	.	8a-/	-ciarz	4B- 4E-/	.	8f/L)	.	8a-/L	.	.	.	.	.	.	.	.	.	.	.	.	.
.	.	.	.	8f/	wciąż	.	.	8d/J	.	8f/J	.	.	.	.	.	.	.	.	.	.	.	.	.
=38	=38	=38	=38	=38	=38	=38	=38	=38	=38	=38	=38	=38	=38	=38	=38	=38	=38	=38	=38	=38	=38	=38	=38
4E-\	.	4BB- 4EE-/	.	4g/	pły-	4B- 4E-/	.	4e-/	.	4g/	.	2r	.	2r	.	2r	.	2r	.	2r	.	2r	.
4E-\	.	4BB- 4EE-/	.	4g/	-nie	4B- 4E-/	.	4e-/	.	4g/	.	.	.	.	.	.	.	.	.	.	.	.	.
=39	=39	=39	=39	=39	=39	=39	=39	=39	=39	=39	=39	=39	=39	=39	=39	=39	=39	=39	=39	=39	=39	=39	=39
!LO:TX:t=P:problem:mixed beam	!	!LO:TX:t=P:problem:mixed beam	!	!	!	!	!	!	!	!	!	!	!	!	!	!	!	!	!	!	!	!	!
8AA-\L	.	8AA-\L	.	8cc\	Je-	8A-\L	.	8e-/L	.	8cc\L	.	2r	.	8r	.	4r	.	8r	.	8r	.	8r	.
!	!	!	!	!	!	!	!	!	!	!	!	!	!	!LO:TX:t=P:problem:mixed beam	!	!	!	!	!	!	!	!	!
8A-\	.	8A-\	.	8cc\	-dnak	8A-\	.	8e-/	.	8cc\	.	.	.	8A-\L	.	.	.	8ccL 8a-\	.	8cc\L	.	8ccc'\L	.
8B-\	.	8B-\	.	8b-\	nie	8B-\	.	8g 8B-/	.	8b-\	.	.	.	8B-\	.	8gL 8e-\	.	8b- 8g\	.	8b-\	.	8ddd'\	.
8BB-\J	.	8BB-\J	.	8dd\	wy-	8f\J	.	8a-J 8B-/	.	8dd\J	.	.	.	8BB-\J	.	8fJ 8B-\	.	8b-J 8a-\	.	8dd\J	.	8eee-'\J	.
=40	=40	=40	=40	=40	=40	=40	=40	=40	=40	=40	=40	=40	=40	=40	=40	=40	=40	=40	=40	=40	=40	=40	=40
4E-\	.	4E-\	.	4ee-\	-pły-	4e-\	.	4g 4B-/	.	4ee-\	.	2r	.	4E-\	.	4e- 4G/	.	4b- 4g\	.	4ee-\	.	4eee-\	.
4E-\	.	4E-\	.	4e-/	-nie	4e-\	.	4g 4B-/	.	4ee-\	.	.	.	4E-\	.	4e- 4G/	.	4b- 4g\	.	4ee-\	.	4ee-\	.
=41	=41	=41	=41	=41	=41	=41	=41	=41	=41	=41	=41	=41	=41	=41	=41	=41	=41	=41	=41	=41	=41	=41	=41
4BB-/	p	2ryy	.	8f/	Tak	4B-/	.	8d/L	.	8f/L	p	2r	.	2r	.	2r	.	2r	.	2r	.	2r	.
.	.	.	.	8g/	też	.	.	8e-/	.	8g/	.	.	.	.	.	.	.	.	.	.	.	.	.
4B-\	.	.	.	8a-/	mi-	4B-/	.	8f/	.	8a-/	.	.	.	.	.	.	.	.	.	.	.	.	.
.	.	.	.	8f/	-łość	.	.	8d/J	.	8f/J	.	.	.	.	.	.	.	.	.	.	.	.	.
!!LO:PB:g=original
=42	=42	=42	=42	=42	=42	=42	=42	=42	=42	=42	=42	=42	=42	=42	=42	=42	=42	=42	=42	=42	=42	=42	=42
4E-\	.	2ryy	.	4cc\	mo-	4E-/	.	4a-X/	.	4cc\	.	2r	.	2r	.	2e- 2E-/	p	2r	.	(4aa-T\	.	(4cccT\	p
4E-\	.	.	.	4b-\	-ia	4E-/	.	4g/	.	4b-\	.	.	.	.	.	.	.	.	.	4gg\)	.	4bb-\)	.
=43	=43	=43	=43	=43	=43	=43	=43	=43	=43	=43	=43	=43	=43	=43	=43	=43	=43	=43	=43	=43	=43	=43	=43
4BB-/	.	2ryy	.	8a-/	Sta-	4B-/	.	8f/L	.	8a-/L	.	2r	.	2r	.	2r	.	2r	.	2r	.	2r	.
.	.	.	.	8a-/	-sien-	.	.	8f/	.	8a-/	.	.	.	.	.	.	.	.	.	.	.	.	.
4BB-/	.	.	.	8g/	-ku	4B-/	.	8e-/	.	8g/	.	.	.	.	.	.	.	.	.	.	.	.	.
.	.	.	.	8f/	dla	.	.	8d/J	.	8f/J	.	.	.	.	.	.	.	.	.	.	.	.	.
=44	=44	=44	=44	=44	=44	=44	=44	=44	=44	=44	=44	=44	=44	=44	=44	=44	=44	=44	=44	=44	=44	=44	=44
4E-\	.	2ryy	.	4g/	Cie-	4E-/	.	4e-/	.	4g/	.	2r	.	2r	.	2r	.	2r	.	2r	.	2r	.
4E-\	.	.	.	4g/	-bie	4E-/	.	4e-/	.	4g/	.	.	.	.	.	.	.	.	.	.	.	.	.
=45	=45	=45	=45	=45	=45	=45	=45	=45	=45	=45	=45	=45	=45	=45	=45	=45	=45	=45	=45	=45	=45	=45	=45
4BB-/	.	2ryy	.	8f/	Ni-	4B-/	.	8d/L	.	8f/L	.	2r	.	2r	.	2r	.	2r	.	2r	.	2r	.
.	.	.	.	8g/	-gdy	.	.	8e-/	.	8g/	.	.	.	.	.	.	.	.	.	.	.	.	.
4B-\	.	.	.	8a-/	nie	4B-/	.	8f/	.	8a-/	.	.	.	.	.	.	.	.	.	.	.	.	.
.	.	.	.	8f/	wy-	.	.	8d/J	.	8f/J	.	.	.	.	.	.	.	.	.	.	.	.	.
=46	=46	=46	=46	=46	=46	=46	=46	=46	=46	=46	=46	=46	=46	=46	=46	=46	=46	=46	=46	=46	=46	=46	=46
4E-\	.	2ryy	.	4cc\	-pły-	4E-/	.	4a-/	.	4cc\	.	2r	.	2r	.	2e- 2E-/	p	2r	.	(4aa-T\	.	(4cccT\	p
4E-\	.	.	.	4b-\	-nie	4E-/	.	4g/	.	4b-\	.	.	.	.	.	.	.	.	.	4gg\)	.	4bb-\)	.
!!LO:PB:g=original
=47	=47	=47	=47	=47	=47	=47	=47	=47	=47	=47	=47	=47	=47	=47	=47	=47	=47	=47	=47	=47	=47	=47	=47
*	*	*	*	*	*	*	*	*	*	*	*	*	*	*	*	*^	*	*	*	*	*	*	*
!	!	!	!	!LO:TX:a:t=Śpiew	!	!	!	!	!	!	!	!	!	!	!	!LO:TX:t=P:problem:w tym miejscu "wchodzi" Corno in F i trzeba było przetransponować aby się zgadzało (konsultowane z JI)	!	!LO:DY:a	!	!	!	!	!	!
8F\	.	8F\	.	8cc\	mu-	8r	.	8r	.	8cc'\L	.	2r	.	2r	.	[2c/	2r	p	2r	.	2r	.	2r	.
8r	.	8r	.	8a-/	-si	8c\	.	8f 8A-/	.	8a-'\J	.	.	.	.	.	.	.	.	.	.	.	.	.	.
.	.	.	.	8qb-/	.	.	.	.	.	(8qcc/	.	.	.	.	.	.	.	.	.	.	.	.	.	.
8F\	.	8F\	.	8b-\	w ser-	8r	.	8r	.	8b-/L)	.	.	.	.	.	.	.	.	.	.	.	.	.	.
8r	.	8r	.	8g/	-cu	8c\	.	8e- 8B-/	.	8g'/J	.	.	.	.	.	.	.	.	.	.	.	.	.	.
=48	=48	=48	=48	=48	=48	=48	=48	=48	=48	=48	=48	=48	=48	=48	=48	=48	=48	=48	=48	=48	=48	=48	=48	=48
8F\	.	8F\	.	8f/	człe-	8r	.	8r	.	8f'/L	.	2r	.	2r	.	2c/]	2r	.	4r	.	4r	.	4r	.
8r	.	8r	.	8f/	-ka	8c\	.	8f 8A-/	.	8f'/J	.	.	.	.	.	.	.	.	.	.	.	.	.	.
8F\	.	8F\	.	8f/	Kie-	8r	.	8r	.	8f'/L	.	.	.	.	.	.	.	.	8r	.	8r	.	8r	.
!	!	!	!	!	!	!	!	!	!	!	!	!	!	!	!	!	!	!	!LO:TX:t=P:problem:w tymi miejscu "wchodzi" klarnet in C i trzeba było przetransponować aby się zgadzało (konsultowane z JI)	!	!	!	!	!
8r	.	8r	.	8a-/	-dy	8c\	.	8f 8A-/	.	8a-'/J	.	.	.	.	.	.	.	.	8a- 8f/	p	8ff\	p	8aa-\	p
*	*	*	*	*	*	*	*	*	*	*	*	*	*	*	*	*v	*v	*	*	*	*	*	*	*
=49	=49	=49	=49	=49	=49	=49	=49	=49	=49	=49	=49	=49	=49	=49	=49	=49	=49	=49	=49	=49	=49	=49	=49
!LO:TX:t=P:problem:mixed beam	!	!LO:TX:t=P:problem:mixed beam	!	!	!	!	!	!	!	!	!	!	!	!LO:TX:t=P:problem:mixed beam	!	!	!	!	!	!	!	!	!
8C/L	.	8C/L	.	8g/	raz	8c/L	.	(8e-'/L	.	(8g'/L	.	2r	.	8C/L	p	8r	.	8gL 8e-'/	.	8ee-\L	.	8gg'\L	.
8F/	.	8F/	.	8f/	iak	8A-/	.	8d'/	.	8f'/	.	.	.	8F/	.	8a-L 8f\	p	8f 8d'/	.	8dd\	.	8ff'\	.
8G/	.	8G/	.	8e-/	traw-	8G/	.	8c'/	.	8e-'/	.	.	.	8G/	.	8g\	.	8e- 8c'/	.	8cc\	.	8ee-'\	.
8GG/J	.	8GG/J	.	8d/	-ka	8G/J	.	8Bn'/J)	.	8d'/J)	.	.	.	8GG/J	.	8g\J	.	8dJ 8c-X'/	.	8bn\J	.	8dd'\J	.
=50	=50	=50	=50	=50	=50	=50	=50	=50	=50	=50	=50	=50	=50	=50	=50	=50	=50	=50	=50	=50	=50	=50	=50
4C/	.	4C/	.	4e-/	drzy	4G/	.	4c/	.	4e-/	.	2r	.	4C/	.	4g 4c/	.	4e- 4c'/	.	4cc\	.	4ee-\	.
4r	.	4r	.	8cc\	To	4r	.	4r	.	(8cc'\L	.	.	.	4r	.	4r	.	4r	.	4r	.	4r	.
.	.	.	.	8cc\	znów	.	.	.	.	8cc'\J)	.	.	.	.	.	.	.	.	.	.	.	.	.
=51	=51	=51	=51	=51	=51	=51	=51	=51	=51	=51	=51	=51	=51	=51	=51	=51	=51	=51	=51	=51	=51	=51	=51
*	*	*	*	*	*	*	*	*	*	*	*	*	*	*	*	*^	*	*	*	*	*	*	*
!	!	!	!	!	!	!	!	!	!	!	!	!	!	!	!	!LO:TX:a:t=I°	!	!	!	!	!	!	!	!
8FF/	.	8FF/	.	8cc\	zi-	8r	.	8r	.	8cc'/L	.	2r	.	2r	.	[2c/	2r	p	2r	.	2r	.	2r	.
8r	.	8r	.	8a-/	-mne	8c\	.	8f 8A-/	.	8a-'/J	.	.	.	.	.	.	.	.	.	.	.	.	.	.
.	.	.	.	8qcc/	.	.	.	.	.	(8qcc/	.	.	.	.	.	.	.	.	.	.	.	.	.	.
8F\	.	8F\	.	8b-/	to	8r	.	8r	.	8b-/L)	.	.	.	.	.	.	.	.	.	.	.	.	.	.
8r	.	8r	.	8g/	do-	8c\	.	8e- 8B-/	.	8g'/J	.	.	.	.	.	.	.	.	.	.	.	.	.	.
=52	=52	=52	=52	=52	=52	=52	=52	=52	=52	=52	=52	=52	=52	=52	=52	=52	=52	=52	=52	=52	=52	=52	=52	=52
8FF/	.	8FF/	.	8f/	-pie-	8r	.	8r	.	8f'/L	.	2r	.	2r	.	2c/]	2r	.	4r	.	4r	.	4r	.
8r	.	8r	.	8f/	-ka	8c\	.	8f 8A-/	.	8f'/	.	.	.	.	.	.	.	.	.	.	.	.	.	.
8F\	.	8F\	.	8f/	ci-	8r	.	8r	.	8f'/	.	.	.	.	.	.	.	.	8r	.	8r	.	8r	.
8r	.	8r	.	8a-/	-che	8c\	.	8f 8A-/	.	8a-'/J	.	.	.	.	.	.	.	.	8a- 8f/	.	8ff\	.	8aa-\	.
!!LO:PB:g=original
*	*	*	*	*	*	*	*	*	*	*	*	*	*	*	*	*v	*v	*	*	*	*	*	*	*
=53	=53	=53	=53	=53	=53	=53	=53	=53	=53	=53	=53	=53	=53	=53	=53	=53	=53	=53	=53	=53	=53	=53	=53
*	*	*	*	*	*	*	*	*	*	*	*	*	*	*	*	*	*	*^	*	*	*	*	*
8C\L	.	2r	.	8g/	lub	8c\L	.	8e-L 8G/	.	8g/L	.	2r	.	8C'\L	p	2r	.	8g 8e-/	4ryy	.	8g/	.	8gg'\	.
8E-\	.	.	.	8cc\	iak	8c\	.	8g 8G/	.	8cc/	.	.	.	8E-'\	.	.	.	8r	.	.	8r	.	8r	.
8F\	.	.	.	8dd\	pió-	8A-\	.	8f 8A-/	.	8dd/	.	.	.	8F'\	.	.	.	8a-/L	8f\L	.	8dd/L|	.	8ddd'\L	.
8G\J	.	.	.	8g/	-run	8Bn\J	.	8dJ 8G/	.	8g/J	.	.	.	8G'\J	.	.	.	8cc-X/J	8c\J	.	8g/J|	.	8gg'\J	.
*	*	*	*	*	*	*	*	*	*	*	*	*	*	*	*	*	*	*v	*v	*	*	*	*	*
=54	=54	=54	=54	=54	=54	=54	=54	=54	=54	=54	=54	=54	=54	=54	=54	=54	=54	=54	=54	=54	=54	=54	=54
16C/	.	2r	.	8cc\	grzmi	16c\	.	16e- 16G/	.	16cc\	.	8r	.	16C/	.	8r	.	16cc 16e-/	.	16cc\	.	16ccc'\	.
16r	.	.	.	.	.	16r	.	16r	ff	16r	.	.	.	16r	.	.	.	16r	.	16r	.	16r	.
8C/	f	.	.	8r	.	8c 8C/	.	8ee- 8cc 8g 8c/	.	8ccc 8cc\|	.	8c/	.	8C/	.	8g 8c/	ff	8ee- 8cc\	.	8gg\	ff	8ccc\	.
8r;	.	.	.	8r;	.	8r;	.	8r;	.	8r;	.	8r;	.	8r;	.	8r;	.	8r;	.	8r;	.	8r;	.
8r	.	.	.	16.g/	To	8r	.	8r	.	(16.g'/LL	.	8r	.	8r	.	8r	.	8r	.	8r	.	16.gg\LL	.
.	.	.	.	32a-/	się	.	.	.	.	32a-'/JJk)	.	.	.	.	.	.	.	.	.	.	.	32aa-\JJk|	.
=55||	=55||	=55||	=55||	=55||	=55||	=55||	=55||	=55||	=55||	=55||	=55||	=55||	=55||	=55||	=55||	=55||	=55||	=55||	=55||	=55||	=55||	=55||	=55||
*M3/8	*	*M3/8	*	*M3/8	*	*M3/8	*	*M3/8	*	*M3/8	*	*M3/8	*	*M3/8	*	*M3/8	*	*M3/8	*	*M3/8	*	*M3/8	*
*	*	*	*	*	*	*	*	*	*	*	*	*	*	*	*	*^	*	*	*	*	*	*	*
!LO:TX:t=P:problem:mixed beam	!	!LO:TX:t=P:problem:mixed beam	!	!	!	!	!	!	!	!	!	!	!	!	!	!	!	!	!	!	!	!	!	!
!LO:TX:a:Bi:t=pizz&colon;	!	!LO:TX:a:Bi:t=pizz&colon;	!	!	!	!	!	!	!	!	!	!	!	!	!	!LO:TX:a:t=I°.	!	!LO:DY:a	!	!	!	!	!	!
8C\L	.	8C\L	.	8b-X/	smu-	(32cLLL 32G'/	.	(32e-LLL 32B-X'/	p	(8b-^/L	.	4.r	.	4.r	.	[4.c/	4.r	pp	4.r	.	4.r	.	(8bb-X\L	.
.	.	.	.	.	.	32c 32G'/	.	32e- 32B-'/	.	.	.	.	.	.	.	.	.	.	.	.	.	.	.	.
.	.	.	.	.	.	32c 32G'/	.	32e- 32B-'/	.	.	.	.	.	.	.	.	.	.	.	.	.	.	.	.
.	.	.	.	.	.	32cJJ 32G'/	.	32e-JJ 32B-'/	.	.	.	.	.	.	.	.	.	.	.	.	.	.	.	.
8c\J	.	8c\J	.	16g/	-ci,	8cJ 8G'/)	.	8e-J 8B-'/)	.	16g/Jk)	.	.	.	.	.	.	.	.	.	.	.	.	16gg\Jk)	.
.	.	.	.	16r	.	.	.	.	.	16r	.	.	.	.	.	.	.	.	.	.	.	.	16r	.
8r	.	8r	.	16.a-/	to	8r	.	8r	.	(16.a-'/LL	.	.	.	.	.	.	.	.	.	.	.	.	16.aa-\LL|	.
.	.	.	.	32cc/	znów	.	.	.	.	32cc'/JJk)	.	.	.	.	.	.	.	.	.	.	.	.	32ccc\JJk|	.
=56	=56	=56	=56	=56	=56	=56	=56	=56	=56	=56	=56	=56	=56	=56	=56	=56	=56	=56	=56	=56	=56	=56	=56	=56
!LO:TX:t=P:problem:mixed beam	!	!LO:TX:t=P:problem:mixed beam	!	!	!	!	!	!	!	!	!	!	!	!	!	!	!	!	!	!	!	!	!	!
8F/L	.	8F/L	.	8f/	ra-	(32cLLL 32F'/	.	(32fLLL 32A-'/	.	8.f/	.	4.r	.	4.r	.	4.c/]	4.r	.	4.r	.	4.r	.	8.ff\	.
.	.	.	.	.	.	32c 32F'/	.	32f 32A-'/	.	.	.	.	.	.	.	.	.	.	.	.	.	.	.	.
.	.	.	.	.	.	32c 32F'/	.	32f 32A-'/	.	.	.	.	.	.	.	.	.	.	.	.	.	.	.	.
.	.	.	.	.	.	32cJJ 32F'/	.	32fJJ 32A-'/	.	.	.	.	.	.	.	.	.	.	.	.	.	.	.	.
8FF/J	.	8FF/J	.	16f/	-de,	8cJ 8F'/)	.	8fJ 8A-'/)	.	.	.	.	.	.	.	.	.	.	.	.	.	.	.	.
.	.	.	.	16r	.	.	.	.	.	16r	.	.	.	.	.	.	.	.	.	.	.	.	16r	.
8r	.	8r	.	16.f/	To	8r	.	8r	.	(16.f'/LL	.	.	.	.	.	.	.	.	.	.	.	.	16.ff\LL|	.
.	.	.	.	32a-/	spo-	.	.	.	.	32a-'/JJk)	.	.	.	.	.	.	.	.	.	.	.	.	32aa-\JJk|	.
=57	=57	=57	=57	=57	=57	=57	=57	=57	=57	=57	=57	=57	=57	=57	=57	=57	=57	=57	=57	=57	=57	=57	=57	=57
!LO:TX:t=P:problem:mixed beam	!	!LO:TX:t=P:problem:mixed beam	!	!	!	!	!	!	!	!	!	!	!	!	!	!	!	!	!	!	!	!	!	!
8GG/L	.	8GG/L	.	8g/	-koj-	(8Bn'/L	.	(32dLLL (32G'/	.	(8g/L	.	4.r	.	4.r	.	4.g\	4.r	.	4.r	.	4.r	.	(8gg\L	.
.	.	.	.	.	.	.	.	32d 32G'/	.	.	.	.	.	.	.	.	.	.	.	.	.	.	.	.
.	.	.	.	.	.	.	.	32d 32G'/	.	.	.	.	.	.	.	.	.	.	.	.	.	.	.	.
.	.	.	.	.	.	.	.	32dJJ 32G'/	.	.	.	.	.	.	.	.	.	.	.	.	.	.	.	.
8G/J	.	8G/J	.	16f/	-ne	8B'/J)	.	8dJ 8G'/))	.	16f/Jk)	.	.	.	.	.	.	.	.	.	.	.	.	16ff\Jk)	.
.	.	.	.	16r	.	.	.	.	.	16r	.	.	.	.	.	.	.	.	.	.	.	.	16r	.
8r	.	8r	.	16.e-/	to	8r	.	8r	.	16.e-'/LL	.	.	.	.	.	.	.	.	.	.	.	.	16.ee-\LL	.
.	.	.	.	32d/	znów	.	.	.	.	32d'/JJk	.	.	.	.	.	.	.	.	.	.	.	.	32dd\JJk	.
!!LO:PB:g=original
*	*	*	*	*	*	*	*	*	*	*	*	*	*	*	*	*v	*v	*	*	*	*	*	*	*
=58||	=58||	=58||	=58||	=58||	=58||	=58||	=58||	=58||	=58||	=58||	=58||	=58||	=58||	=58||	=58||	=58||	=58||	=58||	=58||	=58||	=58||	=58||	=58||
*M2/4	*	*M2/4	*	*M2/4	*	*M2/4	*	*M2/4	*	*M2/4	*	*M2/4	*	*M2/4	*	*M2/4	*	*M2/4	*	*M2/4	*	*M2/4	*
8C/	.	8C/	.	8e-/	drga	8c\	.	8e- 8G/	.	8e-/	.	8r	.	8r	.	8c/	.	8r	.	8r	.	8ee-\	.
8r;	.	8r;	.	8r;	.	8r;	.	8r;	.	8r;	.	8r;	.	8r;	.	8r;	.	8r	.	8r;	.	8r;	.
4r	.	4r	.	8cc\	Oh	4r	.	4r	.	(8cc'\L	.	4r	.	4r	.	4r	.	4r	.	4r	.	4r	.
.	.	.	.	8cc\	ja	.	.	.	.	8cc'\J)	.	.	.	.	.	.	.	.	.	.	.	.	.
=59	=59	=59	=59	=59	=59	=59	=59	=59	=59	=59	=59	=59	=59	=59	=59	=59	=59	=59	=59	=59	=59	=59	=59
*	*	*	*	*	*	*	*	*	*	*	*	*	*	*	*	*	*	*^	*	*	*	*	*
8FF/	.	8FF/	.	8cc\	gło-	8r	.	8r	.	(8cc\L	.	2r	.	2r	.	2r	.	(8cc/L	2r	p	2r	.	(8ccc\L	.
8r	.	8r	.	8a-\	-wę	8c\	.	8f 8A-/	.	8a-\J)	.	.	.	.	.	.	.	8a-/J)	.	.	.	.	8aa-\J)	.
.	.	.	.	(8qcc/	.	.	.	.	.	(8qcc/	.	.	.	.	.	.	.	(8qcc/	.	.	.	.	(8qccc/	.
8F\	.	8F\	.	8b-/)	w za-	8r	.	8r	.	8b-/L)	.	.	.	.	.	.	.	8b-/L)	.	.	.	.	8bb-\L)	.
8r	.	8r	.	8g/	-kład	8c\	.	8e- 8B-/	.	8g'/J	.	.	.	.	.	.	.	8g'/J	.	.	.	.	8gg'\J	.
=60	=60	=60	=60	=60	=60	=60	=60	=60	=60	=60	=60	=60	=60	=60	=60	=60	=60	=60	=60	=60	=60	=60	=60	=60
8FF/	.	8FF/	.	8f/	kła-	8r	.	8r	.	(8f'/L	.	2r	.	2r	.	2r	.	4f/	2r	.	2r	.	4ff\	.
8r	.	8r	.	8f/	-dę	8c\	.	8f 8A-/	.	8f'/J)	.	.	.	.	.	.	.	.	.	.	.	.	.	.
8F\	.	8F\	.	8f/	że	8r	.	8r	.	(8f'/L	.	.	.	.	.	.	.	4r	.	.	.	.	4r	.
8r	.	8r	.	8a-/	w nim	8c\	.	8f 8A-/	.	8a-'/J)	.	.	.	.	.	.	.	.	.	.	.	.	.	.
=61	=61	=61	=61	=61	=61	=61	=61	=61	=61	=61	=61	=61	=61	=61	=61	=61	=61	=61	=61	=61	=61	=61	=61	=61
8BB-/	.	8BB-/	.	8g/	du-	8r	.	8r	.	8g'/L	.	2r	.	4B-\	p	2r	.	8r	2r	.	8r	.	8r	.
8r	.	8r	.	8b-X/	-sza	8d\L	.	8g/L	.	8b-'/	.	.	.	.	.	.	.	8dd/L	.	.	8gg\L	.	8bb-'\L	.
!	!	!	!	!	!	!	!	!	!	!	!	!	!	!LO:TX:t=P:problem:mixed beam	!	!	!	!	!	!	!	!	!	!
8C/L	.	8C/L	.	8a-/	gnia-	8c\	.	8f/	.	8a-'/	.	.	.	8c\L	.	.	.	8cc/	.	.	16ff\L	.	8aa-'\	.
.	.	.	.	.	.	.	.	.	.	.	.	.	.	.	.	.	.	.	.	.	16ff\J	.	.	.
8C/J	.	8C/J	.	8g/	-zdko	8c\J	.	8e-/J	.	8g'/J	.	.	.	8C\J	.	.	.	8cc/J	.	.	8ee-\J	.	8gg'\J	.
=62	=62	=62	=62	=62	=62	=62	=62	=62	=62	=62	=62	=62	=62	=62	=62	=62	=62	=62	=62	=62	=62	=62	=62	=62
4F\	.	4F\	.	4a-/	ma	4c\	.	4f/	.	4a-/	.	2r	.	4F\	.	2r	.	4cc/	2r	.	4ff\	.	4aa-\	.
8D\	.	8D\	.	8f/	że	8r	.	8r	.	(8f'/L	.	.	.	4r	.	.	.	4r	.	.	4r	.	4r	.
8r	.	8r	.	8a-/	w nim	8d\	.	8f/	.	8a-'/J)	.	.	.	.	.	.	.	.	.	.	.	.	.	.
!!LO:PB:g=original
*	*	*	*	*	*	*	*	*	*	*	*	*	*	*	*	*	*	*v	*v	*	*	*	*	*
=63	=63	=63	=63	=63	=63	=63	=63	=63	=63	=63	=63	=63	=63	=63	=63	=63	=63	=63	=63	=63	=63	=63	=63
8BB-/	.	2r	.	8g/	du-	8r	.	8r	.	8g/L	.	2r	.	8r	.	4r	.	8r	.	8r	.	8r	.
!	!	!	!	!	!	!	!	!	!	!	!	!	!	!LO:TX:t=P:problem:mixed beam	!	!	!	!	!	!	!	!	!
8r	.	.	.	8d-X/	-sza	8B-/L	.	8d-X/L	.	8d-X/	.	.	.	8B-\L	.	.	.	8b-\L	.	8b-/L	.	8dd-X\L	.
8C/L	.	.	.	8c/	gnia-	8A-/	.	8c/	.	8c/	.	.	.	8c\	.	8a-L 8f\	p	8a-\	.	8a-/	.	8cc\	.
8C/J	.	.	.	8e-/	-zdko	8G/J	.	8B-/J	.	8e-J 8c/	.	.	.	8C\J	.	8gJ 8c\	.	8g\J	.	8b-/J	.	8ee-\J	.
=64	=64	=64	=64	=64	=64	=64	=64	=64	=64	=64	=64	=64	=64	=64	=64	=64	=64	=64	=64	=64	=64	=64	=64
8F\	.	2r	.	8f/	ma.	8F/	.	8A-/	.	8f 8c/	.	4r	.	8F\	.	8f 8A-/	.	8f/	.	8a-/	.	8ff\	.
8r	.	.	.	8r	.	8r	.	8r	.	8r	.	.	.	8r	.	8r	.	8r	.	8r	.	8r	.
.	.	.	.	.	.	.	.	.	.	(8qdd/	.	.	.	.	.	.	.	.	.	.	.	(8qdd/	.
8r	.	.	.	4r	.	8r	.	8r	.	16.cc\LL)	.	8r	.	8r	.	8r	.	8r	.	8r	.	16.cc\LL)	.
.	.	.	.	.	.	.	.	.	.	32bn\JJk|	.	.	.	.	.	.	.	.	.	.	.	32bn\JJk|	.
8C/	sf	.	.	.	.	8e- 8G\	.	8b-X 8g 8c^/	sf	8ccc 8cc^\|	sf	8cc\	.	8C/	sf	8g 8c/	sf	8ee- 8b-\	.	8ccc\	sf	8ccc\|	sf
=65	=65	=65	=65	=65	=65	=65	=65	=65	=65	=65	=65	=65	=65	=65	=65	=65	=65	=65	=65	=65	=65	=65	=65
.	.	.	.	.	.	.	.	.	.	8qdd/	.	.	.	.	.	.	.	.	.	.	.	(8qdd/	.
8r	.	2r	.	2r	.	8r	.	8r	.	16.cc\LL	.	8r	.	8r	.	8r	.	8r	.	8r	.	16.cc\LL)	.
.	.	.	.	.	.	.	.	.	.	32bn\JJk|	.	.	.	.	.	.	.	.	.	.	.	32bn\JJk|	.
8F\	sf	.	.	.	.	8f 8A-\	.	8a- 8f 8c^/	sf	8ccc 8cc^\|	sf	8cc\	.	8F\	sf	8a- 8f\	sf	8ff 8a-\	.	8ccc\	sf	8ccc\	sf
!	!	!	!	!	!	!	!	!	!	!	!	!LO:TX:t=P:problem:mixed beam	!	!	!	!	!	!	!	!	!	!	!
8BB-/L	.	.	.	.	.	8dL 8B-\	.	8b-/L	.	8dd'\L	.	8dd/L	.	8BB-/L	.	8g\L	.	8ddL 8b-\	.	8dd'\L	.	8ddd'\L	.
8C/J	.	.	.	.	.	8c\J	.	8b-J 8g/	.	8ee-'\J	.	8e-/J	.	8C/J	.	8gJ 8c\	.	8ccJ 8b-\	.	8ee-'\J	.	8eee-'\J	.
=66	=66	=66	=66	=66	=66	=66	=66	=66	=66	=66	=66	=66	=66	=66	=66	=66	=66	=66	=66	=66	=66	=66	=66
!!LO:TX:a:Bi:t=[segno]:problem:znak segno na kresce taktowej
4FF/	.	4r	.	4r	.	4c 4F/	.	4a- 4f/	.	4ff\	.	4f/	.	4F\	.	4f 4A-/	.	4cc 4a-\	.	4ff\	.	4fff\	.
==	==	==	==	==	==	==	==	==	==	==	==	==	==	==	==	==	==	==	==	==	==	==	==
*-	*-	*-	*-	*-	*-	*-	*-	*-	*-	*-	*-	*-	*-	*-	*-	*-	*-	*-	*-	*-	*-	*-	*-
!!title: @{OTL};
!!!RDF**kern: > = above
!!!RDF**kern: < = below
!!!RDF**dynam: > = "dim.", fontstyle= "bold-italic"
!!!RDF**dynam: < = "cresc.", fontstyle= "bold-italic"
!!!RDF**kern: | = vertical stroke
!!!RDF**kern: N = linked
!!!RDF**kern: i = editorial accidental
!!!EED: Wojciech Jakubiak-Danek
!!!EST: 2021-07-10
!!!URL-scan: http://repozytorium.nifc.pl/skany/pl-wtm-nut--r1448
!!!ONB-nifc:
!!!ENC: Anastazja Marusiak
!!!END: 2021-07-06
!!!RDF**kern: | = vertical stroke
